X: 14352
T: Gallowglass, The
R: jig
M: 6/8
K: Aminor
A/B/|:cBA eBd|cAA A2 d/c/|BGG e^fg|dBG G2 A/B/|
cBA eBd|cAc e2 d|cBA ^GAB|1 cAA A2 A/B/:|2 cAA A2 e||
aba efd|cAA A2 d/c/|BGG e^fg|dBG G2 e|
aba efd|cAc e2d|cBA ^GAB|cAA A2 e|
aba efd|cAA A2 d/c/|BGG e^fg|dBG G2 e|
aeg ^fdB|ecA dBG|ABc dBe|cAA A2 A/B/||

